X: 88
T: Senpolska efter Grubb-Anders Nonsson
O: H\"alsingland, Sweden
R: sen-polska
S: http://www.folksweden.com/files/088_Senpolska_efter_Grubb-Anders_Jonsson.pdf (Tim Rued)
Z: 2021 John Chambers <jc:trillian.mit.edu>
M: 3/4
L: 1/8
K: Am	% and A and Dm
z |\
A2 ^ce d2 | d>^c AB =c2 | c>e ed dB | BA AF E2 || A2 ^ce d2 |
d>^c AB =c2 | c>e ed dB | BA A3 ::[K:Dm] E | F2 FE/F/ GE | ED DF AG |
F2 FE/F/ GE | ED DF AG || F2 FE/F/ G>E | ED D3 :|
